src/assets/logo-skillshare.svg

<svg width="236" height="62" viewBox="0 0 236 62" fill="none" xmlns="http://www.w3.org/2000/svg">
<g clip-path="url(#clip0_351_14125)">
<path d="M3.76233 23.9315C4.48729 20.4341 5.8672 17.0105 7.93974 13.8397C16.1134 1.34262 32.1888 -2.87131 45.2785 3.48051L41.215 9.86442C36.9734 8.01167 32.373 7.61094 28.0239 8.51777C22.5417 9.67092 17.5272 12.8864 14.2192 17.9443C13.1214 19.6243 12.2851 21.3956 11.6999 23.2116L3.76396 23.9315H3.76233Z" fill="#9A1421"/>
<path d="M11.6975 23.2155C10.52 26.8707 10.3553 30.7125 11.1193 34.3757C12.2713 39.8572 15.4898 44.8728 20.5463 48.1822C25.6059 51.487 31.4896 52.4236 36.9736 51.2784C42.457 50.1264 47.4707 46.9086 50.779 41.852C54.0842 36.7929 55.0199 30.9093 53.8758 25.4243C52.7243 19.9414 49.5065 14.9272 44.45 11.6189C43.4029 10.9342 42.32 10.3514 41.2129 9.86805L45.2763 3.48413C46.3934 4.02581 47.4887 4.64402 48.5553 5.34153C62.1174 14.2115 65.9224 32.3908 57.0571 45.955C48.1859 59.5176 30.0078 63.324 16.4436 54.4587C6.04995 47.6624 1.38668 35.3995 3.76274 23.9346L11.7001 23.2173L11.6975 23.2155Z" fill="#1970A0"/>
<path d="M28.6689 11.6208C23.9819 12.6067 19.6956 15.3572 16.8667 19.6811C14.0395 24.0062 13.2408 29.0367 14.2174 33.7258C15.2028 38.4126 17.9534 42.6989 22.2778 45.5273C26.6036 48.3534 31.6329 49.1539 36.322 48.1759C41.0102 47.1902 45.2969 44.4407 48.1246 40.1167C50.9512 35.7905 51.7506 30.7625 50.7733 26.0732C49.7885 21.3864 47.038 17.0967 42.7152 14.2694C38.3869 11.4421 33.3584 10.643 28.6673 11.621L28.6689 11.6208Z" fill="#26AB80"/>
<path d="M34.2703 12.2764L37.7716 23.5076L49.7254 23.4457C49.7254 23.4457 47.9529 21.5402 47.0896 21.0845C47.0896 21.0845 48.7339 19.2797 51.6945 15.4598C53.8589 12.6702 56.4884 7.68686 51.4782 3.98462C49.3379 2.40329 46.7821 2.05744 44.0967 1.67368C42.5084 1.44692 40.5228 0.831968 38.9306 1.14572C39.9686 1.80416 41.1534 2.38469 41.8046 3.36618C42.4058 4.26976 42.5931 5.20521 42.1986 6.29416C41.593 7.9627 40.8587 8.92676 40.1516 9.91965C39.9672 10.1762 37.4835 13.7626 37.2092 13.6365C37.2046 13.6361 34.2694 12.2769 34.2694 12.2769L34.2703 12.2764Z" fill="#1970A0"/>
<path d="M35.5338 0.70722C35.5338 0.70722 44.9729 1.27751 44.3786 6.4006C44.1977 7.96262 43.1287 9.63233 41.8553 11.3316C39.6716 14.2435 38.4692 15.9783 38.4692 15.9783L36.8425 14.9136L39.119 21.7326L46.4242 21.925L45.0087 20.8933C45.0087 20.8933 53.5038 11.5102 52.8321 7.48071C52.2573 4.03966 50.7086 3.07095 50.7086 3.07095C50.7086 3.07095 45.1057 -1.236 35.5326 0.70722H35.5338Z" fill="white"/>
<path d="M45.3597 42.0322L34.1548 38.4469L27.3397 48.2675C27.3397 48.2675 29.9174 47.909 30.7871 47.4671C30.7871 47.4671 31.319 49.8476 32.7452 54.466C33.7862 57.8408 36.3546 62.855 42.2638 60.8785C44.7866 60.0356 46.538 58.1429 48.3951 56.1652C49.4922 54.9949 51.1366 53.7238 51.7939 52.2397C50.6579 52.7114 49.5025 53.3459 48.3247 53.3161C47.2404 53.2898 46.3677 52.9061 45.7035 51.9569C44.6843 50.5037 44.3173 49.3483 43.9107 48.1998C43.8054 47.9021 42.2968 43.807 42.5573 43.656C42.562 43.6537 45.3623 42.0303 45.3623 42.0303L45.3597 42.0322Z" fill="#1970A0"/>
<path d="M54.1074 49.7055C54.1074 49.7055 48.2189 57.1051 44.3659 53.6755C43.1912 52.63 42.4383 50.7957 41.7798 48.7778C40.6486 45.316 39.9201 43.3363 39.9201 43.3363L41.7261 42.6157L34.8359 40.5627L30.4819 46.4354L32.1393 45.8684C32.1393 45.8684 34.9408 58.2115 38.6251 59.9761C41.7736 61.4842 43.4554 60.772 43.4554 60.772C43.4554 60.772 50.5212 58.3369 54.1053 49.7081L54.1074 49.7055Z" fill="white"/>
<path d="M17.0413 38.4876L24.2755 29.2099L17.4132 19.4216C17.4132 19.4216 16.8585 21.9661 16.9748 22.9348C16.9748 22.9348 14.5557 22.612 9.72961 22.3543C6.2032 22.1663 0.610533 22.8455 0.422839 29.0726C0.342598 31.7317 1.51574 34.0287 2.73005 36.4541C3.44873 37.8887 4.07391 39.871 5.23961 41.0001C5.19031 39.7714 4.99331 38.4669 5.42638 37.3723C5.82712 36.3645 6.48951 35.6775 7.60823 35.3819C9.32422 34.9286 10.5362 34.9823 11.7542 34.9972C12.0696 35.0021 16.4331 34.9995 16.4845 35.2975L17.0415 38.4862L17.0413 38.4876Z" fill="#1970A0"/>
<path d="M6.81422 44.0492C6.81422 44.0492 1.90348 35.9672 6.45163 33.536C7.83828 32.7941 9.82058 32.722 11.9417 32.7996C15.5793 32.9348 17.6895 32.9348 17.6895 32.9348L17.7428 34.8771L22.0491 29.1207L18.044 23.0079L18.004 24.7588C18.004 24.7588 5.45129 23.1259 2.52331 25.9738C0.0218921 28.4073 0.108878 30.2315 0.108878 30.2315C0.108878 30.2315 -0.358612 38.6742 6.81422 44.0492Z" fill="white"/>
<path d="M76.1007 36.138C77.3215 36.7632 79.1976 37.3886 81.1333 37.3886C83.218 37.3886 84.3197 36.5251 84.3197 35.2147C84.3197 33.9641 83.3668 33.2494 80.9547 32.3858C77.6195 31.2245 75.4455 29.378 75.4455 26.4598C75.4455 23.0351 78.3044 20.4146 83.0391 20.4146C85.3024 20.4146 86.97 20.8911 88.161 21.4272L87.1486 25.0899C86.3446 24.7029 84.9151 24.137 82.9498 24.137C80.9842 24.137 80.0314 25.0304 80.0314 26.0726C80.0314 27.3529 81.1631 27.9188 83.7538 28.9015C87.2975 30.2118 88.9651 32.0581 88.9651 34.887C88.9651 38.2522 86.3743 41.1406 80.8652 41.1406C78.5721 41.1406 76.3089 40.5155 75.1774 39.89L76.1007 36.1385V36.138Z" fill="black"/>
<path d="M92.0323 20.7413H96.5289V29.6155H96.6182C97.0647 28.8412 97.5413 28.1265 97.9881 27.4118L102.544 20.7413H108.113L101.472 29.2878L108.47 40.8122H103.17L98.256 32.1465L96.5289 34.2609V40.8122H92.0323V20.7425V20.7413Z" fill="black"/>
<path d="M114.872 20.7413V40.8122H110.316V20.7425H114.872V20.7413Z" fill="black"/>
<path d="M118.802 20.7423H123.359V37.0016H131.339V40.8134H118.802V20.7413V20.7423Z" fill="black"/>
<path d="M134.017 20.7423H138.573V37.0016H146.554V40.8134H134.017V20.7413V20.7423Z" fill="black"/>
<path d="M149.383 36.138C150.603 36.7632 152.48 37.3886 154.415 37.3886C156.5 37.3886 157.602 36.5251 157.602 35.2147C157.602 33.9641 156.649 33.2494 154.237 32.3858C150.901 31.2245 148.727 29.378 148.727 26.4598C148.727 23.0351 151.586 20.4146 156.321 20.4146C158.584 20.4146 160.252 20.8911 161.443 21.4272L160.43 25.0899C159.626 24.7029 158.197 24.137 156.231 24.137C154.266 24.137 153.313 25.0304 153.313 26.0726C153.313 27.3529 154.444 27.9188 157.035 28.9015C160.579 30.2118 162.247 32.0581 162.247 34.887C162.247 38.2522 159.656 41.1406 154.147 41.1406C151.854 41.1406 149.591 40.5155 148.459 39.89L149.385 36.1385L149.383 36.138Z" fill="black"/>
<path d="M169.87 20.7413V28.454H177.345V20.7413H181.871V40.8122H177.345V32.4146H169.87V40.8122H165.314V20.7425H169.87V20.7413Z" fill="black"/>
<path d="M190.507 35.6605L189.078 40.8122H184.373L190.507 20.7413H196.463L202.687 40.8122H197.803L196.255 35.6605H190.51H190.507ZM195.601 32.2648L194.35 28.0063C193.993 26.815 193.635 25.3262 193.337 24.1349H193.278C192.98 25.326 192.682 26.8448 192.354 28.0063L191.163 32.2648H195.601H195.601Z" fill="black"/>
<path d="M205.365 21.0117C206.825 20.7736 208.999 20.5947 211.41 20.5947C214.388 20.5947 216.473 21.0415 217.902 22.173C219.094 23.1259 219.749 24.5256 219.749 26.3718C219.749 28.9328 217.932 30.6897 216.205 31.3151V31.4044C217.605 31.9705 218.379 33.3102 218.885 35.1567C219.51 37.4199 220.136 40.0405 220.523 40.8147H215.877C215.55 40.2191 215.073 38.611 214.478 36.1394C213.941 33.6379 213.078 32.953 211.232 32.9232H209.862V40.8147H205.365V21.0129L205.365 21.0117ZM209.861 29.6473H211.648C213.911 29.6473 215.251 28.5158 215.251 26.7588C215.251 24.9126 214.001 23.9893 211.916 23.9595C210.814 23.9595 210.189 24.0488 209.861 24.1083V29.6484V29.6473Z" fill="black"/>
<path d="M234.966 32.3242H227.581V37.0886H235.829V40.8111H223.024V20.7413H235.413V24.4636H227.581V28.6326H234.966V32.326V32.3242Z" fill="black"/>
</g>
<defs>
<clipPath id="clip0_351_14125">
<rect width="236" height="62" fill="white"/>
</clipPath>
</defs>
</svg>

<svg width="236" height="62" fill="none" xmlns="http://www.w3.org/2000/svg"><g clip-path="url(#a)"><path d="M3.762 23.931A29.276 29.276 0 0 1 7.94 13.84C16.113 1.343 32.189-2.871 45.279 3.48l-4.064 6.384a21.778 21.778 0 0 0-13.191-1.346c-5.482 1.153-10.497 4.368-13.805 9.426a21.901 21.901 0 0 0-2.52 5.268l-7.935.72h-.002Z" fill="#9A1421"/><path d="M11.697 23.215a21.828 21.828 0 0 0-.578 11.16c1.152 5.482 4.37 10.498 9.427 13.807 5.06 3.305 10.944 4.242 16.428 3.096 5.483-1.152 10.497-4.37 13.805-9.426 3.305-5.06 4.24-10.943 3.097-16.428-1.152-5.483-4.37-10.497-9.426-13.805a21.99 21.99 0 0 0-3.237-1.75l4.063-6.385a29.528 29.528 0 0 1 3.28 1.858c13.561 8.87 17.366 27.049 8.501 40.613-8.871 13.563-27.05 17.369-40.613 8.504C6.05 47.662 1.387 35.399 3.763 23.935l7.937-.718-.002-.002Z" fill="#1970A0"/><path d="M28.669 11.62c-4.687.987-8.973 3.737-11.802 8.061-2.828 4.325-3.626 9.356-2.65 14.045.986 4.687 3.736 8.973 8.06 11.801a18.6 18.6 0 0 0 14.045 2.649c4.688-.986 8.975-3.735 11.803-8.06 2.826-4.325 3.626-9.354 2.648-14.043-.985-4.687-3.735-8.976-8.058-11.804-4.328-2.827-9.357-3.626-14.048-2.648h.002Z" fill="#26AB80"/><path d="m34.27 12.276 3.502 11.232 11.953-.062s-1.772-1.906-2.635-2.362c0 0 1.644-1.804 4.604-5.624 2.165-2.79 4.794-7.773-.216-11.475-2.14-1.582-4.696-1.928-7.381-2.311-1.589-.227-3.574-.842-5.166-.528 1.038.658 2.222 1.239 2.874 2.22.6.904.788 1.84.394 2.928-.606 1.669-1.34 2.633-2.047 3.626-.185.256-2.669 3.843-2.943 3.716-.004 0-2.94-1.36-2.94-1.36h.001Z" fill="#1970A0"/><path d="M35.534.707s9.439.57 8.845 5.694c-.181 1.562-1.25 3.231-2.524 4.93-2.183 2.912-3.386 4.647-3.386 4.647l-1.627-1.064 2.277 6.819 7.305.192-1.415-1.032s8.495-9.383 7.823-13.412c-.575-3.441-2.123-4.41-2.123-4.41S45.106-1.236 35.533.707Z" fill="#fff"/><path d="m45.36 42.032-11.205-3.585-6.815 9.82s2.577-.358 3.447-.8c0 0 .532 2.38 1.958 6.999 1.041 3.375 3.61 8.389 9.519 6.413 2.523-.843 4.274-2.736 6.131-4.714 1.097-1.17 2.742-2.441 3.399-3.925-1.136.471-2.291 1.106-3.47 1.076-1.084-.026-1.956-.41-2.62-1.36-1.02-1.452-1.387-2.608-1.793-3.756-.106-.298-1.614-4.393-1.354-4.544l2.805-1.626-.002.002Z" fill="#1970A0"/><path d="M54.107 49.706s-5.888 7.4-9.741 3.97c-1.175-1.046-1.928-2.88-2.586-4.898-1.131-3.462-1.86-5.442-1.86-5.442l1.806-.72-6.89-2.053-4.354 5.872 1.657-.567s2.802 12.343 6.486 14.108c3.149 1.508 4.83.796 4.83.796s7.066-2.435 10.65-11.064l.002-.002Z" fill="#fff"/><path d="m17.041 38.488 7.235-9.278-6.863-9.788s-.555 2.544-.438 3.513c0 0-2.42-.323-7.245-.58-3.527-.189-9.12.49-9.307 6.718-.08 2.659 1.093 4.956 2.307 7.381.719 1.435 1.344 3.417 2.51 4.546-.05-1.229-.247-2.533.186-3.628.401-1.008 1.064-1.694 2.182-1.99 1.716-.453 2.928-.4 4.146-.385.316.005 4.68.002 4.73.3l.557 3.19Z" fill="#1970A0"/><path d="M6.814 44.05s-4.91-8.083-.362-10.514c1.386-.742 3.369-.814 5.49-.736 3.637.135 5.747.135 5.747.135l.054 1.942 4.306-5.756-4.005-6.113-.04 1.75s-12.553-1.632-15.48 1.216C.021 28.407.108 30.232.108 30.232s-.468 8.442 6.705 13.817Z" fill="#fff"/><path d="M76.1 36.138c1.222.625 3.098 1.25 5.033 1.25 2.085 0 3.187-.863 3.187-2.173 0-1.25-.953-1.966-3.365-2.83-3.335-1.16-5.51-3.007-5.51-5.925 0-3.425 2.86-6.045 7.594-6.045 2.263 0 3.931.476 5.122 1.012l-1.012 3.663a9.543 9.543 0 0 0-4.2-.953c-1.965 0-2.918.893-2.918 1.936 0 1.28 1.132 1.846 3.723 2.828 3.543 1.31 5.211 3.157 5.211 5.986 0 3.365-2.59 6.254-8.1 6.254-2.293 0-4.556-.625-5.688-1.251l.924-3.752ZM92.032 20.741h4.497v8.875h.09c.446-.775.922-1.49 1.37-2.204l4.555-6.67h5.569l-6.641 8.546 6.998 11.524h-5.3l-4.914-8.665-1.727 2.114v6.551h-4.497v-20.07ZM114.872 20.741v20.071h-4.556v-20.07h4.556ZM118.802 20.742h4.557v16.26h7.98v3.811h-12.537V20.741v.001ZM134.017 20.742h4.556v16.26h7.981v3.811h-12.537V20.741v.001ZM149.383 36.138c1.22.625 3.097 1.25 5.032 1.25 2.085 0 3.187-.863 3.187-2.173 0-1.25-.953-1.966-3.365-2.83-3.336-1.16-5.51-3.007-5.51-5.925 0-3.425 2.859-6.045 7.594-6.045 2.263 0 3.931.476 5.122 1.012l-1.013 3.663a9.542 9.542 0 0 0-4.199-.953c-1.965 0-2.918.893-2.918 1.936 0 1.28 1.131 1.846 3.722 2.828 3.544 1.31 5.212 3.157 5.212 5.986 0 3.365-2.591 6.254-8.1 6.254-2.293 0-4.556-.625-5.688-1.251l.926-3.752h-.002ZM169.87 20.741v7.713h7.475v-7.713h4.526v20.071h-4.526v-8.397h-7.475v8.397h-4.556v-20.07h4.556ZM190.507 35.66l-1.429 5.152h-4.705l6.134-20.07h5.956l6.224 20.07h-4.884l-1.548-5.151h-5.748Zm5.094-3.395-1.251-4.259c-.357-1.191-.715-2.68-1.013-3.871h-.059c-.298 1.191-.596 2.71-.924 3.871l-1.191 4.259h4.438ZM205.365 21.012c1.46-.238 3.634-.417 6.045-.417 2.978 0 5.063.447 6.492 1.578 1.192.953 1.847 2.353 1.847 4.199 0 2.56-1.817 4.318-3.544 4.943v.09c1.4.566 2.174 1.905 2.68 3.752.625 2.263 1.251 4.884 1.638 5.658h-4.646c-.327-.596-.804-2.204-1.399-4.676-.537-2.501-1.4-3.186-3.246-3.216h-1.37v7.892h-4.497V21.012Zm4.496 8.635h1.787c2.263 0 3.603-1.131 3.603-2.888 0-1.846-1.25-2.77-3.335-2.8-1.102 0-1.727.09-2.055.15v5.54-.002ZM234.966 32.324h-7.385v4.765h8.248v3.722h-12.805v-20.07h12.389v3.723h-7.832v4.169h7.385v3.693-.002Z" fill="#000"/></g><defs><clipPath id="a"><path fill="#fff" d="M0 0h236v62H0z"/></clipPath></defs></svg>
